assets/ai/ai-elsevier-square.svg

<svg xmlns="http://www.w3.org/2000/svg" width="100%" height="100%" viewBox="-75.52 -43.52 599.04 599.04"><path d="M 48 32 C 21.5 32 0 53.5 0 80 L 0 432 C 0 458.5 21.5 480 48 480 L 400 480 C 426.5 480 448 458.5 448 432 L 448 80 C 448 53.5 426.5 32 400 32 L 48 32 z M 310.93945 96 L 332.16406 96 L 332.16406 182.12305 L 310.93945 182.12305 L 302.77539 135.5918 L 199.91797 135.5918 L 199.91797 251.50977 L 275.83594 251.50977 L 281.55078 217.22461 L 301.55078 217.22461 L 301.55078 307.42773 L 281.55078 307.42773 L 275.83594 273.55078 L 199.91797 273.55078 L 199.91797 364.98047 C 199.91797 385.38863 201.14269 387.83606 202.36719 389.06055 C 203.59168 390.28504 207.67319 391.50977 241.14258 391.50977 L 271.34766 391.50977 C 295.83746 391.50977 307.67434 389.8784 312.98047 384.57227 C 318.69476 378.85799 325.2254 363.3463 333.38867 329.46875 L 353.79688 329.46875 L 345.63281 414.36719 L 175.42773 414.36719 C 146.8563 414.36719 116.24394 415.18367 94.203125 416 L 94.203125 396 L 147.26562 391.91797 L 147.67383 391.50977 L 147.67383 135.5918 L 94.611328 131.50977 L 94.611328 111.10156 C 123.18276 112.32606 143.59108 113.14258 156.24414 113.14258 L 306.85742 113.14258 L 310.93945 96 z"/></svg>

<svg xmlns="http://www.w3.org/2000/svg" width="100%" height="100%" viewBox="-75.52 -43.52 599.04 599.04"><path d="M48 32C21.5 32 0 53.5 0 80v352c0 26.5 21.5 48 48 48h352c26.5 0 48-21.5 48-48V80c0-26.5-21.5-48-48-48H48zm262.94 64h21.224v86.123H310.94l-8.164-46.531H199.918V251.51h75.918l5.715-34.285h20v90.203h-20l-5.715-33.877h-75.918v91.43c0 20.408 1.225 22.855 2.45 24.08 1.224 1.224 5.305 2.449 38.775 2.449h30.205c24.49 0 36.326-1.632 41.632-6.938 5.715-5.714 12.245-21.226 20.409-55.103h20.408l-8.164 84.898H175.428c-28.572 0-59.184.817-81.225 1.633v-20l53.063-4.082.408-.408V135.592L94.61 131.51v-20.408c28.572 1.224 48.98 2.04 61.633 2.04h150.613L310.94 96z"/></svg>
